resources/icons/20px/calendar.svg

<?xml version="1.0" encoding="utf-8"?>
<!-- Generator: Adobe Illustrator 17.1.0, SVG Export Plug-In . SVG Version: 6.00 Build 0)  -->
<!DOCTYPE svg PUBLIC "-//W3C//DTD SVG 1.1//EN" "http://www.w3.org/Graphics/SVG/1.1/DTD/svg11.dtd">
<svg version="1.1" id="Layer_1" xmlns:sketch="http://www.bohemiancoding.com/sketch/ns"
	 xmlns="http://www.w3.org/2000/svg" xmlns:xlink="http://www.w3.org/1999/xlink" x="0px" y="0px" viewBox="-1 -1 20 20"
	 enable-background="new -1 -1 20 20" xml:space="preserve">
<title>Shape</title>
<desc>Created with Sketch.</desc>
<g id="Page-1" sketch:type="MSPage">
	<g id="Artboard-1" transform="translate(-1.000000, -1.000000)" sketch:type="MSArtboardGroup">
		<path id="Shape" sketch:type="MSShapeGroup" d="M15,5c0.6,0,1-0.4,1-1V2c0-0.5-0.4-1-1-1s-1,0.5-1,1v2C14,4.6,14.4,5,15,5L15,5z
			 M5,5c0.6,0,1-0.4,1-1V2c0-0.5-0.4-1-1-1S4,1.5,4,2v2C4,4.6,4.4,5,5,5L5,5z M18,3h-1v1c0,1.1-0.9,2-2,2s-2-0.9-2-2V3H7v1
			c0,1.1-0.9,2-2,2S3,5.1,3,4V3H2C1.5,3,1,3.5,1,4v14c0,0.5,0.5,1,1,1h16c0.5,0,1-0.5,1-1V4C19,3.5,18.5,3,18,3L18,3z M7,17H3v-4h4
			V17L7,17z M7,12H3V8h4V12L7,12z M12,17H8v-4h4V17L12,17z M12,12H8V8h4V12L12,12z M17,17h-4v-4h4V17L17,17z M17,12h-4V8h4V12L17,12
			z"/>
	</g>
</g>
</svg>

<?xml version="1.0" encoding="UTF-8"?>
<svg width="20px" height="20px" viewBox="0 0 20 20" version="1.1" xmlns="http://www.w3.org/2000/svg" xmlns:xlink="http://www.w3.org/1999/xlink">
    <!-- Generator: Sketch 49.1 (51147) - http://www.bohemiancoding.com/sketch -->
    <title>Artboard</title>
    <desc>Created with Sketch.</desc>
    <defs></defs>
    <g id="Artboard" stroke="none" stroke-width="1" fill="none" fill-rule="evenodd">
        <path d="M15,5 C15.6,5 16,4.6 16,4 L16,2 C16,1.5 15.6,1 15,1 C14.4,1 14,1.5 14,2 L14,4 C14,4.6 14.4,5 15,5 Z M5,5 C5.6,5 6,4.6 6,4 L6,2 C6,1.5 5.6,1 5,1 C4.4,1 4,1.5 4,2 L4,4 C4,4.6 4.4,5 5,5 Z M18,3 L17,3 L17,4 C17,5.1 16.1,6 15,6 C13.9,6 13,5.1 13,4 L13,3 L7,3 L7,4 C7,5.1 6.1,6 5,6 C3.9,6 3,5.1 3,4 L3,3 L2,3 C1.5,3 1,3.5 1,4 L1,18 C1,18.5 1.5,19 2,19 L18,19 C18.5,19 19,18.5 19,18 L19,4 C19,3.5 18.5,3 18,3 Z M7,17 L3,17 L3,13 L7,13 L7,17 Z M7,12 L3,12 L3,8 L7,8 L7,12 Z M12,17 L8,17 L8,13 L12,13 L12,17 Z M12,12 L8,12 L8,8 L12,8 L12,12 Z M17,17 L13,17 L13,13 L17,13 L17,17 Z M17,12 L13,12 L13,8 L17,8 L17,12 Z" id="Shape" fill="#000000" fill-rule="nonzero"></path>
    </g>
</svg>
